build/assets/images/svg/icons/menu/close.svg

<svg width="28" height="24" viewBox="0 0 28 24" fill="none" xmlns="http://www.w3.org/2000/svg">
<path d="M7.9504 5.63616C7.51003 5.24563 6.79604 5.24563 6.35567 5.63616C5.9153 6.02668 5.9153 6.65984 6.35567 7.05037L11.9372 12.0001L6.35567 16.9499C5.9153 17.3404 5.9153 17.9736 6.35567 18.3641C6.79604 18.7546 7.51003 18.7546 7.9504 18.3641L13.5319 13.4143L19.1135 18.3641C19.5539 18.7546 20.2678 18.7546 20.7082 18.3641C21.1486 17.9736 21.1486 17.3404 20.7082 16.9499L15.1267 12.0001L20.7082 7.05037C21.1486 6.65984 21.1486 6.02668 20.7082 5.63616C20.2678 5.24563 19.5539 5.24563 19.1135 5.63616L13.5319 10.5859L7.9504 5.63616Z" fill="white"/>
</svg>

<svg width="28" height="24" fill="none" xmlns="http://www.w3.org/2000/svg"><path d="M7.95 5.636a1.232 1.232 0 00-1.594 0 .922.922 0 000 1.414L11.937 12l-5.581 4.95a.922.922 0 000 1.414c.44.39 1.154.39 1.594 0l5.582-4.95 5.581 4.95c.44.39 1.155.39 1.595 0a.922.922 0 000-1.414L15.127 12l5.581-4.95a.922.922 0 000-1.414 1.232 1.232 0 00-1.595 0l-5.581 4.95-5.582-4.95z" fill="#fff"/></svg>
